icons/Brush_1.svg

<svg width="24" height="24" viewBox="0 0 24 24" fill="none" xmlns="http://www.w3.org/2000/svg">
<path fill-rule="evenodd" clip-rule="evenodd" d="M10.6428,9.87147c-0.81776,1.12443 -1.38379,2.14553 -1.6917,2.79643c1.055,0.476 1.905,1.326 2.381,2.381c0.6509,-0.3079 1.672,-0.8739 2.7964,-1.6917c-0.4196,-0.9691 -0.8322,-1.6252 -1.3463,-2.1394c-0.5142,-0.5141 -1.1703,-0.9267 -2.1394,-1.34633zM11.5998,8.65701c0.9011,0.4203 1.6297,0.88681 2.243,1.50019c0.6134,0.6133 1.0799,1.3419 1.5002,2.243c0.235,-0.2007 0.4705,-0.4116 0.7041,-0.6326c2.0726,-1.96048 3.9218,-4.63852 4.1737,-7.98843c-3.3499,0.25195 -6.0279,2.10117 -7.9884,4.17373c-0.221,0.23362 -0.4319,0.46906 -0.6326,0.70411zM21,2.25c0.4142,0 0.75,0.33579 0.75,0.75c0,4.28411 -2.2779,7.5926 -4.6721,9.8574c-2.0328,1.9229 -4.2172,3.1591 -5.3521,3.6603c0.016,0.1586 0.0242,0.3195 0.0242,0.4823c0,2.6234 -2.12665,4.75 -4.75,4.75h-4c-0.41421,0 -0.75,-0.3358 -0.75,-0.75v-4c0,-2.6234 2.12665,-4.75 4.75,-4.75c0.16282,0 0.32373,0.0082 0.48233,0.0242c0.50112,-1.1349 1.73741,-3.31931 3.66027,-5.3521c2.2648,-2.39417 5.5733,-4.6721 9.8574,-4.6721zM7,13.75c-1.79493,0 -3.25,1.4551 -3.25,3.25v3.25h3.25c1.79493,0 3.25,-1.4551 3.25,-3.25c0,-1.7949 -1.45507,-3.25 -3.25,-3.25z" fill="#002B51"/>
</svg>

<svg width="24" height="24" viewBox="0 0 24 24" fill="none" xmlns="http://www.w3.org/2000/svg">
<path fill-rule="evenodd" clip-rule="evenodd" d="M10.6428 9.87147C9.82504 10.9959 9.25901 12.017 8.9511 12.6679C10.0061 13.1439 10.8561 13.9939 11.3321 15.0489C11.983 14.741 13.0041 14.175 14.1285 13.3572C13.7089 12.3881 13.2963 11.732 12.7822 11.2178C12.268 10.7037 11.6119 10.2911 10.6428 9.87147ZM11.5998 8.65701C12.5009 9.07731 13.2295 9.54382 13.8428 10.1572C14.4562 10.7705 14.9227 11.4991 15.343 12.4002C15.578 12.1995 15.8135 11.9886 16.0471 11.7676C18.1197 9.80712 19.9689 7.12908 20.2208 3.77917C16.8709 4.03112 14.1929 5.88034 12.2324 7.9529C12.0114 8.18652 11.8005 8.42196 11.5998 8.65701ZM11.1426 6.9221C9.21974 8.95489 7.98345 11.1393 7.48233 12.2742C7.32373 12.2582 7.16282 12.25 7 12.25C4.37665 12.25 2.25 14.3766 2.25 17V21C2.25 21.4142 2.58579 21.75 3 21.75H7C9.62335 21.75 11.75 19.6234 11.75 17C11.75 16.8372 11.7418 16.6763 11.7258 16.5177C12.8607 16.0165 15.0451 14.7803 17.0779 12.8574C19.4721 10.5926 21.75 7.28411 21.75 3C21.75 2.58579 21.4142 2.25 21 2.25C16.7159 2.25 13.4074 4.52793 11.1426 6.9221ZM7 13.75C5.20507 13.75 3.75 15.2051 3.75 17V20.25H7C8.79493 20.25 10.25 18.7949 10.25 17C10.25 15.2051 8.79493 13.75 7 13.75Z" fill="#002B51"/>
</svg>
